X:17
T: Week 1 homework
M:6/8
L:1/8
K:Gminor
%%MIDI program 1 65 % Alto Sax
%%MIDI program 2 113 % Agogo
%%MIDI program 3 115 % Woodblock
%%MIDI program 4 116 % Taiko Drum
V:1
z2 G2 B2| d2 d3 c|B2 G2 d B| A2 G4||
V:2 perc
z z D z D D|z D z D z D |z z D z D D|z D z D z D ||
V:3 perc
B z z z B z|B z B z B z|B z z z B z|B z B z B z||
V:4 perc
G3 G3 |z3 G3 |G3 G3 |z3 G3 ||

%%newpage
